docs/images/icons/logo.svg

<svg width="160" height="34" viewBox="0 0 160 34" fill="none" xmlns="http://www.w3.org/2000/svg">
<path d="M27.133 5.95386V9.91543H34.8791V29.693H40.1556V9.91543H47.9996V5.95386H27.133Z" fill="white"/>
<path opacity="0.4" d="M37.5554 5.95386V29.693H34.8791V9.91543H27.133V5.95386H37.5554Z" fill="white"/>
<path d="M21.4105 11.9146L19.7568 7.92283L19.0388 6.13861L18.9626 5.94708H14.0669L13.4033 7.60026L7.36519 22.6804L4.55831 29.7064H10.0959L11.9019 24.8074L16.5256 23.2651L16.58 23.2449L21.1494 24.8074L22.8139 29.6661L28.7432 29.7064L21.4105 11.9146ZM16.5365 19.5555L16.5039 19.5454L13.3271 20.8458L14.6761 17.0858L16.5148 11.965L16.5365 12.0154L17.5701 14.8783L19.7351 20.8559L16.5365 19.5555Z" fill="white"/>
<path opacity="0.4" d="M14.6761 17.0825L13.3271 20.8425L16.5039 19.5321L16.5365 19.5522V23.2618L11.9019 24.8041L10.0959 29.7031H4.55831L7.36519 22.6872L13.4033 7.60703L14.0669 5.95386H16.5365V12.0021L16.5148 11.9517L14.6761 17.0825Z" fill="white"/>
<path d="M71.6731 5.95347V29.6926H66.3857V13.927L56.1155 29.6926H50.839V5.97363L53.4175 8.0401L53.4719 8.08042L56.1155 5.91315V21.7493L65.2978 7.61672L66.2987 6.08451L66.3857 5.95347H71.6731Z" fill="white"/>
<path d="M95.4556 21.4372C95.4447 21.2155 95.4229 21.0038 95.3903 20.7921C95.238 19.7841 94.8898 18.8869 94.335 18.0906C93.9977 17.6168 93.6061 17.1733 93.1165 16.7701C93.0295 16.6894 92.9315 16.6188 92.8228 16.5382C91.5499 15.5604 89.9506 14.9354 88.0249 14.6633C87.3395 14.5625 86.6106 14.5121 85.8491 14.5121C85.7838 14.5121 85.7185 14.5121 85.6424 14.5121H81.5191V9.91543H93.247L91.1691 8.03041L93.2144 5.95386H76.1991V29.7031H85.8491C87.1002 29.693 88.2534 29.5519 89.2869 29.2898C89.4828 29.2394 89.6786 29.189 89.8744 29.1185C90.995 28.7656 91.985 28.2515 92.8336 27.5762C94.5852 26.175 95.4664 24.3303 95.4664 22.0219C95.4773 21.8203 95.4664 21.6288 95.4556 21.4372ZM88.9714 24.7335C88.1881 25.3988 87.1546 25.7415 85.8599 25.7617C85.8273 25.7617 85.7838 25.7617 85.7511 25.7617H81.5408V18.4535H85.8708C87.209 18.4736 88.2643 18.7962 89.0258 19.4313C89.7983 20.0562 90.1791 20.903 90.1791 21.9816C90.1791 23.1307 89.7765 24.048 88.9714 24.7335Z" fill="white"/>
<path d="M92.6535 20.0951V21.3753H94.0352V20.0951H92.6535Z" fill="#0B0B0C"/>
<path d="M91.2909 21.3546V22.6348H92.6726V21.3546H91.2909Z" fill="#0B0B0C"/>
<path d="M92.6513 22.6274V23.9076H94.033V22.6274H92.6513Z" fill="#0B0B0C"/>
<path d="M66.739 8.74426H68.1207V7.46406H66.739V8.74426Z" fill="#0B0B0C"/>
<path d="M68.1017 10.0062H69.4834V8.72596H68.1017V10.0062Z" fill="#0B0B0C"/>
<path d="M69.4746 8.74426H70.8563V7.46406H69.4746V8.74426Z" fill="#0B0B0C"/>
<path d="M39.6232 26.92H38.2415V28.2002H39.6232V26.92Z" fill="#0B0B0C"/>
<path d="M38.2511 25.6505H36.8694V26.9307H38.2511V25.6505Z" fill="#0B0B0C"/>
<path d="M36.8918 26.92H35.5101V28.2002H36.8918V26.92Z" fill="#0B0B0C"/>
<path d="M15.8845 7.45563H14.5028V8.73583H15.8845V7.45563Z" fill="#0B0B0C"/>
<path d="M15.8651 9.99835H17.2467V8.71815H15.8651V9.99835Z" fill="#0B0B0C"/>
<path d="M17.2272 8.73663H18.6089V7.45643H17.2272V8.73663Z" fill="#0B0B0C"/>
<path opacity="0.4" d="M79.1365 5.95386H76.199V29.7031H79.1365V5.95386Z" fill="white"/>
<path d="M37.5657 25.6505H36.8694V26.9307H37.5657V25.6505Z" fill="#0B0B0C"/>
<path d="M15.8727 9.99835H16.5581V8.71815H15.8727V9.99835Z" fill="#0B0B0C"/>
<path opacity="0.4" d="M53.4174 8.03973V29.6923H50.839V5.97327L53.4174 8.03973Z" fill="white"/>
<path d="M107.256 17.1567H108.703V18.4941H107.256V17.1567Z" fill="white"/>
<path d="M109 18H151" stroke="white" stroke-width="0.5" stroke-miterlimit="10"/>
<path d="M109 17V19H107V17H109Z" fill="#0B0B0C" stroke="white" stroke-width="0.5" stroke-miterlimit="10"/>
<path d="M109.51 10.1777C109.454 11.0143 109.295 11.5872 109.031 11.8965V11.9355H112.107V7.01367H109.71L109.51 10.1777ZM108.274 14.3916H107.127V11.9355H107.63C108.05 11.6719 108.287 11.0599 108.343 10.0996L108.597 5.9541H113.362V11.9355H114.241V14.3916H113.099V13H108.274V14.3916ZM120.086 7.93164H120.022L116.599 13H115.379V5.9541H116.634V11.0371H116.697L120.115 5.9541H121.336V13H120.086V7.93164ZM124.324 8.89355H125.261C125.645 8.89355 125.956 8.79427 126.194 8.5957C126.432 8.39714 126.55 8.13835 126.55 7.81934C126.55 7.50358 126.438 7.25293 126.213 7.06738C125.992 6.88509 125.688 6.79395 125.3 6.79395C124.91 6.79395 124.594 6.88997 124.353 7.08203C124.112 7.27409 123.979 7.53613 123.953 7.86816H122.776C122.809 7.22689 123.054 6.71745 123.513 6.33984C123.972 5.96549 124.579 5.77832 125.335 5.77832C126.054 5.77832 126.64 5.95573 127.092 6.31055C127.545 6.66211 127.771 7.11784 127.771 7.67773C127.771 8.07161 127.649 8.41829 127.405 8.71777C127.161 9.01725 126.843 9.21094 126.453 9.29883V9.33789C126.925 9.39323 127.299 9.57715 127.576 9.88965C127.852 10.2021 127.991 10.596 127.991 11.0713C127.991 11.6735 127.737 12.1748 127.229 12.5752C126.718 12.9756 126.078 13.1758 125.31 13.1758C124.526 13.1758 123.888 12.9821 123.396 12.5947C122.901 12.2074 122.638 11.6947 122.605 11.0566H123.816C123.842 11.3854 123.992 11.6475 124.265 11.8428C124.535 12.0348 124.885 12.1309 125.315 12.1309C125.728 12.1309 126.062 12.0267 126.316 11.8184C126.57 11.61 126.697 11.3366 126.697 10.998C126.697 10.6562 126.572 10.3893 126.321 10.1973C126.074 10.0052 125.728 9.90918 125.286 9.90918H124.324V8.89355ZM133.176 11.1787H130.583L129.983 13H128.684L131.184 5.9541H132.605L135.105 13H133.777L133.176 11.1787ZM130.876 10.207H132.878L131.897 7.19922H131.863L130.876 10.207ZM138.288 4.00098C138.295 4.25814 138.378 4.4681 138.537 4.63086C138.697 4.79688 138.902 4.87988 139.153 4.87988C139.403 4.87988 139.608 4.79688 139.768 4.63086C139.927 4.4681 140.01 4.25814 140.017 4.00098H140.779C140.779 4.44694 140.627 4.80827 140.324 5.08496C140.025 5.3584 139.634 5.49512 139.153 5.49512C138.671 5.49512 138.28 5.3584 137.981 5.08496C137.678 4.80827 137.527 4.44694 137.527 4.00098H138.288ZM140.901 7.93164H140.837L137.414 13H136.194V5.9541H137.448V11.0371H137.512L140.93 5.9541H142.151V13H140.901V7.93164ZM148.42 13V9.94336H144.992V13H143.732V5.9541H144.992V8.88379H148.42V5.9541H149.675V13H148.42Z" fill="white"/>
<path d="M110.711 30.1416C109.705 30.1416 108.908 29.8128 108.318 29.1553C107.729 28.4977 107.435 27.6042 107.435 26.4746C107.435 25.3516 107.731 24.4596 108.323 23.7988C108.912 23.1413 109.708 22.8125 110.711 22.8125C111.505 22.8125 112.181 23.0355 112.737 23.4814C113.294 23.9307 113.624 24.5166 113.729 25.2393H112.479C112.374 24.8356 112.161 24.5117 111.839 24.2676C111.52 24.0267 111.144 23.9062 110.711 23.9062C110.105 23.9062 109.622 24.1374 109.261 24.5996C108.899 25.0651 108.719 25.6901 108.719 26.4746C108.719 27.2656 108.898 27.8923 109.256 28.3545C109.617 28.8167 110.104 29.0479 110.716 29.0479C111.159 29.0479 111.536 28.9404 111.849 28.7256C112.158 28.5075 112.369 28.2048 112.483 27.8174H113.733C113.597 28.5433 113.261 29.1113 112.728 29.5215C112.19 29.9349 111.518 30.1416 110.711 30.1416ZM116.733 30V24.0186H114.595V22.9541H120.132V24.0186H117.993V30H116.733ZM122.502 30.0586C122.248 30.0586 122.071 30.0358 121.97 29.9902V28.9404C122.09 28.9665 122.229 28.9795 122.385 28.9795C122.85 28.9795 123.202 28.7809 123.439 28.3838L121.076 22.9541H122.409L124.089 27.1045H124.128L125.744 22.9541H127.067L124.909 27.9834C124.584 28.7386 124.25 29.2692 123.908 29.5752C123.544 29.8975 123.075 30.0586 122.502 30.0586ZM129.848 27.1777C129.792 28.0143 129.633 28.5872 129.369 28.8965V28.9355H132.445V24.0137H130.048L129.848 27.1777ZM128.612 31.3916H127.465V28.9355H127.968C128.388 28.6719 128.625 28.0599 128.681 27.0996L128.935 22.9541H133.7V28.9355H134.579V31.3916H133.437V30H128.612V31.3916ZM140.724 24.9316H140.66L137.237 30H136.017V22.9541H137.271V28.0371H137.335L140.753 22.9541H141.974V30H140.724V24.9316ZM147.806 23.9795H146.463C146.03 23.9795 145.693 24.0869 145.452 24.3018C145.208 24.5133 145.086 24.8112 145.086 25.1953C145.086 25.5794 145.206 25.8789 145.447 26.0938C145.688 26.3053 146.027 26.4111 146.463 26.4111H147.806V23.9795ZM144.871 30H143.455L145.369 27.2266C144.894 27.0931 144.516 26.8473 144.236 26.4893C143.947 26.1214 143.802 25.6885 143.802 25.1904C143.802 24.5231 144.025 23.9844 144.471 23.5742C144.92 23.1608 145.512 22.9541 146.248 22.9541H149.056V30H147.806V27.3975H146.644L144.871 30Z" fill="white"/>
</svg>

<svg width="160" height="34" fill="none" xmlns="http://www.w3.org/2000/svg"><path d="M27.133 5.954v3.961h7.746v19.778h5.277V9.915H48V5.954H27.133Z" fill="#fff"/><path opacity=".4" d="M37.555 5.954v23.739H34.88V9.915h-7.746V5.954h10.422Z" fill="#fff"/><path d="m21.41 11.915-1.653-3.992-.718-1.784-.076-.192h-4.896L13.403 7.6 7.365 22.68l-2.807 7.026h5.538l1.806-4.899 4.624-1.542.054-.02 4.57 1.562 1.664 4.86 5.93.04-7.334-17.792Zm-4.873 7.64-.033-.01-3.177 1.3 1.35-3.76 1.838-5.12.021.05 1.034 2.863 2.165 5.978-3.198-1.3Z" fill="#fff"/><path opacity=".4" d="m14.676 17.082-1.349 3.76 3.177-1.31.032.02v3.71l-4.634 1.542-1.806 4.9H4.558l2.807-7.017 6.038-15.08.664-1.653h2.47v6.048l-.022-.05-1.839 5.13Z" fill="#fff"/><path d="M71.673 5.953v23.74h-5.287V13.927l-10.27 15.766h-5.277V5.973l2.578 2.067.055.04 2.643-2.167V21.75l9.183-14.132 1-1.532.088-.132h5.287Zm23.783 15.484a6.205 6.205 0 0 0-.066-.645 6.288 6.288 0 0 0-1.055-2.701 6.761 6.761 0 0 0-1.218-1.32c-.088-.082-.186-.152-.294-.233-1.273-.978-2.872-1.603-4.798-1.875-.686-.1-1.414-.15-2.176-.15h-4.33V9.914h11.728L91.169 8.03l2.045-2.076H76.2v23.75h9.65c1.251-.011 2.404-.152 3.438-.414a6.4 6.4 0 0 0 .587-.171c1.121-.353 2.111-.867 2.96-1.543 1.751-1.401 2.632-3.246 2.632-5.554.011-.202 0-.393-.01-.585Zm-6.485 3.296c-.783.666-1.816 1.008-3.111 1.029h-4.32v-7.309h4.33c1.338.02 2.393.343 3.155.978.772.625 1.153 1.472 1.153 2.55 0 1.15-.403 2.067-1.208 2.752Z" fill="#fff"/><path d="M92.653 20.095v1.28h1.382v-1.28h-1.382Z" fill="#0B0B0C"/><path d="M91.29 21.355v1.28h1.383v-1.28H91.29Z" fill="#0B0B0C"/><path d="M92.651 22.627v1.28h1.382v-1.28h-1.382ZM66.739 8.744h1.382v-1.28h-1.382v1.28Z" fill="#0B0B0C"/><path d="M68.102 10.006h1.381v-1.28h-1.381v1.28Z" fill="#0B0B0C"/><path d="M69.475 8.744h1.381v-1.28h-1.381v1.28ZM39.623 26.92h-1.381v1.28h1.381v-1.28Z" fill="#0B0B0C"/><path d="M38.251 25.65H36.87v1.28h1.382v-1.28Z" fill="#0B0B0C"/><path d="M36.892 26.92H35.51v1.28h1.382v-1.28ZM15.884 7.456h-1.381v1.28h1.381v-1.28Z" fill="#0B0B0C"/><path d="M15.865 9.998h1.382v-1.28h-1.382v1.28Z" fill="#0B0B0C"/><path d="M17.227 8.737h1.382v-1.28h-1.382v1.28Z" fill="#0B0B0C"/><path opacity=".4" d="M79.136 5.954H76.2v23.75h2.938V5.953Z" fill="#fff"/><path d="M37.566 25.65h-.697v1.28h.697v-1.28ZM15.873 9.998h.685v-1.28h-.685v1.28Z" fill="#0B0B0C"/><path opacity=".4" d="M53.417 8.04v21.652H50.84V5.973l2.578 2.067Z" fill="#fff"/><path d="M107.256 17.157h1.447v1.337h-1.447v-1.337Z" fill="#fff"/><path d="M109 18h42" stroke="#fff" stroke-width=".5" stroke-miterlimit="10"/><path d="M109 17v2h-2v-2h2Z" fill="#0B0B0C" stroke="#fff" stroke-width=".5" stroke-miterlimit="10"/><path d="M109.51 10.178c-.056.836-.215 1.41-.479 1.718v.04h3.076V7.013h-2.397l-.2 3.164Zm-1.236 4.214h-1.147v-2.457h.503c.42-.263.657-.875.713-1.835l.254-4.146h4.765v5.981h.879v2.457h-1.142V13h-4.825v1.392Zm11.812-6.46h-.064L116.599 13h-1.22V5.954h1.255v5.083h.063l3.418-5.083h1.221V13h-1.25V7.932Zm4.238.962h.937c.384 0 .695-.1.933-.298a.962.962 0 0 0 .356-.777c0-.315-.112-.566-.337-.752-.221-.182-.525-.273-.913-.273-.39 0-.706.096-.947.288a1.064 1.064 0 0 0-.4.786h-1.177c.033-.641.278-1.15.737-1.528.459-.375 1.066-.562 1.822-.562.719 0 1.305.178 1.757.533.453.351.679.807.679 1.367a1.655 1.655 0 0 1-1.318 1.62v.04c.472.055.846.24 1.123.552.276.312.415.706.415 1.181 0 .603-.254 1.104-.762 1.504-.511.4-1.151.6-1.919.6-.784 0-1.422-.193-1.914-.58-.495-.388-.758-.9-.791-1.538h1.211c.026.328.176.59.449.786.27.192.62.288 1.05.288.413 0 .747-.104 1.001-.313a1.01 1.01 0 0 0 .381-.82c0-.342-.125-.609-.376-.8-.247-.193-.593-.289-1.035-.289h-.962V8.894Zm8.852 2.285h-2.593l-.6 1.821h-1.299l2.5-7.046h1.421l2.5 7.046h-1.328l-.601-1.821Zm-2.3-.972h2.002l-.981-3.008h-.034l-.987 3.008Zm7.412-6.206a.9.9 0 0 0 .249.63c.16.166.365.249.616.249.25 0 .455-.083.615-.25a.9.9 0 0 0 .249-.629h.762c0 .446-.152.807-.455 1.084-.299.273-.69.41-1.171.41-.482 0-.873-.137-1.172-.41-.303-.277-.454-.638-.454-1.084h.761Zm2.613 3.93h-.064L137.414 13h-1.22V5.954h1.254v5.083h.064l3.418-5.083h1.221V13h-1.25V7.932ZM148.42 13V9.943h-3.428V13h-1.26V5.954h1.26v2.93h3.428v-2.93h1.255V13h-1.255Zm-37.709 17.142c-1.006 0-1.803-.33-2.393-.987-.589-.657-.883-1.55-.883-2.68 0-1.123.296-2.015.888-2.676.589-.658 1.385-.986 2.388-.986.794 0 1.47.223 2.026.668.557.45.887 1.036.992 1.758h-1.25a1.728 1.728 0 0 0-.64-.971 1.819 1.819 0 0 0-1.128-.362c-.606 0-1.089.231-1.45.694-.362.465-.542 1.09-.542 1.875 0 .79.179 1.417.537 1.88.361.462.848.693 1.46.693.443 0 .82-.108 1.133-.322a1.64 1.64 0 0 0 .634-.909h1.25c-.136.726-.472 1.294-1.005 1.704-.538.414-1.21.62-2.017.62Zm6.022-.142v-5.981h-2.138v-1.065h5.537v1.065h-2.139V30h-1.26Zm5.769.059c-.254 0-.431-.023-.532-.069v-1.05c.12.026.259.04.415.04.465 0 .817-.2 1.054-.596l-2.363-5.43h1.333l1.68 4.15h.039l1.616-4.15h1.323l-2.158 5.03c-.325.755-.659 1.285-1.001 1.591-.364.323-.833.484-1.406.484Zm7.346-2.881c-.056.836-.215 1.41-.479 1.718v.04h3.076v-4.922h-2.397l-.2 3.164Zm-1.236 4.214h-1.147v-2.456h.503c.42-.264.657-.876.713-1.836l.254-4.146h4.765v5.982h.879v2.456h-1.142V30h-4.825v1.392Zm12.112-6.46h-.064L137.237 30h-1.22v-7.046h1.254v5.083h.064l3.418-5.083h1.221V30h-1.25v-5.068Zm7.082-.952h-1.343c-.433 0-.77.107-1.011.322-.244.211-.366.51-.366.893 0 .384.12.684.361.899.241.211.58.317 1.016.317h1.343V23.98ZM144.871 30h-1.416l1.914-2.773a2.122 2.122 0 0 1-1.133-.738 2.04 2.04 0 0 1-.434-1.299c0-.667.223-1.206.669-1.616.449-.413 1.041-.62 1.777-.62h2.808V30h-1.25v-2.602h-1.162L144.871 30Z" fill="#fff"/></svg>
